svg/briefcase_check.svg

<svg xmlns="http://www.w3.org/2000/svg" viewBox="0 0 24 24"><path d="M10 2h4a2 2 0 0 1 2 2v2h4a2 2 0 0 1 2 2v11a2 2 0 0 1-2 2H4a2 2 0 0 1-2-2V8a2 2 0 0 1 2-2h4V4a2 2 0 0 1 2-2m4 4V4h-4v2zm-3.5 11.5 6.59-6.59-1.41-1.41-5.18 5.17-2.09-2.08L7 14z"/></svg>

<?xml version="1.0" encoding="UTF-8"?><!DOCTYPE svg PUBLIC "-//W3C//DTD SVG 1.1//EN" "http://www.w3.org/Graphics/SVG/1.1/DTD/svg11.dtd"><svg xmlns="http://www.w3.org/2000/svg" xmlns:xlink="http://www.w3.org/1999/xlink" version="1.1" id="mdi-briefcase-check" width="24" height="24" viewBox="0 0 24 24"><path d="M10,2H14A2,2 0 0,1 16,4V6H20A2,2 0 0,1 22,8V19A2,2 0 0,1 20,21H4A2,2 0 0,1 2,19V8A2,2 0 0,1 4,6H8V4A2,2 0 0,1 10,2M14,6V4H10V6H14M10.5,17.5L17.09,10.91L15.68,9.5L10.5,14.67L8.41,12.59L7,14L10.5,17.5Z" /></svg>
